X:1
T:Haec dies quam fecit Dominus
T:Caspar Ett (1788-1847) 
T:für 5-6-Stimmigen gemischten Chor SA(A)TTB
%%score [ 1 2 ] [ ( 3 4 ) 5 ]
L:1/8
M:3/4
K:F
V:1 treble nm="Sopran"
V:2 treble nm="Alt"
V:3 treble-8 nm="Tenor"
V:4 treble-8 
V:5 bass nm="Bass"
V:1
 c6 | c2 A2 F2 | (B2 c2) d2 | d>c c2 z2 | (c4 E2) | c4 E2 | F2 B2 A2 | A>G G2 e>e | f2 c2 B>A | %9
w: Haec|di- es quam|fe \- cit|Do- mi- nus,|haec _|di- es|quam fe- cit|Do- mi- nus. Al- le-|lu- ja, Al- le-|
 A2 G2 z2 | z6 | z6 | z4 c2 | fd =Bd BG | e2 c2 G2 | G2 G2 =B2 | c2 c2 | c>c | f2 e2 d>d | %19
w: lu- ja!|||Lae-|te- * mur * lae *|te- mur, lae-|te- mur in|e- a.|Al- le-|lu- ja, Al- le-|
 (e4 d2) | c4 z2 | c4 c2 | f2 e2 d>d | (e4 d2) | !fermata!c6 || c6 | c2 A2 F2 | (B2 c2) d2 | %28
w: lu- *|ja,|Al- le-|lu- ja, Al- le-|lu- *|ja!|Haec|di- es quam|fe \- cit|
 d>c c2 z2 | (c4 E2) | (c4 E2) | F2 B2 A2 | A>G G2 z2 | G2 c2 B2 | B>A A2 c>c | _e2 A2 B>d | %36
w: Do- mi- nus,|haec _|di- es|quam fe- cit|Do- mi- nus,|quam fe- cit|Do- mi- nus. Al- le-|lu- ja, Al- le-|
 d2 c2 z2 | z6 | z4 c2 | fc Ac AF | E2 B2 B2 | A2 A2 A2 | G2 G2 G2 | A2 A2 | c>c | B2 c2 d>d | c6 | %47
w: lu- ja!||Lae-|te- * mur * in *|e- a, lae-|te- mur, lae-|te- mur in|e- a.|Al- le-|lu- ja, Al- le-|lu-|
 A4 z2 | f4 A2 | B2 c2 | d>d | c6 | A2 F2 A2 | c6 | A2 F2 A2 | c6 | !fermata!A6 |] %57
w: ja,|Al- le-|lu- ja,|Al- le-|lu-|ja, Al- le-|lu~~~~~\-~~~~~~~\-~~~~~~~\-|ja, Al- le-|lu~~~~~\-~~~~~~~\-~~~~~~~\-|ja!|
V:2
 C6 | C2 C2 C2 | (D2 F2) F2 | F>F F2 z2 | C6 | C4 C2 | C2 E2 F2 | F>E E2 G>G | F2 F2 E>F | %9
w: Haec|di- es quam|fe \- cit|Do- mi- nus,|haec|di- es|quam fe- cit|Do- mi- nus. Al- le-|lu- ja, Al- le-|
 F2 E2 z2 | z6 | z4 G2 | cG EG EC | =B,2 F2 F2 | E2 E2 E2 | D2 D2 D2 | C2 E2 | E>E | F2 G2 A>A | %19
w: lu- ja!||Lae-|te- * mur * in *|e- a, lae-|te- mur, lae-|te- mur in|e- a.|Al- le-|lu- ja, Al- le-|
 (G4 F2) | E2 (C2 D2 | E2 F2) G2 | F2 G2 A>A | (G4 =B2) | !fermata!G6 || C6 | C2 C2 _E2 | %27
w: lu- *|ja, Al- *|* * le-|lu- ja, Al- le-|lu- *|ja!|Haec|di- es quam|
 (D2 F2) F2 | F>F F2 z2 | C6 | (C4 C2) | C2 E2 F2 | F>E E2 z2 | E2 G2 E2 | F>F F2 F>F | F2 F2 F>B | %36
w: fe \- cit|Do- mi- nus,|haec|di- es|quam fe- cit|Do- mi- nus,|quam fe- cit|Do- mi- nus. Al- le-|lu- ja, Al- le-|
 F2 F2 z2 | CC C2 C2 | C4 C2 | C2 C2 C2 | C2 C2 E2 | F2 F2 F2 | BG EG EC | F2 F2 | F>F | %45
w: lu- ja!|Ex- sul- te- mus|et lae-|te- mur in|e- a, lae-|te- mur, lae-|te- * mur * in *|e- a.|Al- le-|
 F2 F2 F>F | (F4 E2) | F4 z2 | z4 F>F | F2 F2 | F>F | (F4 E2) | F4 z2 | F>F (G2 E2) | F4 z2 | %55
w: lu- ja, Al- le-|lu- *|ja,|Al- le-|lu- ja,|Al- le|lu- *|ja,|Al- le- lu \-|ja,|
 [FA]>[FA] ([GB]2 [EG]2) | !fermata![CF]6 |] %57
w: Al- le- lu \-|ja!|
V:3
 A6 | A2 A2 A2 | (B2 A2) B2 | B>A A2 z2 | ([EG]4 [GB]2) | [EG]4 [GB]2 | A2 G2 F2 | c>c c2 c>c | %8
w: Haec|di- es quam|fe \- cit|Do- mi- nus,|haec _|di- es|quam fe- cit|Do- mi- nus. Al- le-|
 c2 c2 c>c | c2 c2 z2 | GG G2 G2 | G4 G2 | G2 G2 G2 | G2 G2 =B2 | c2 c2 c2 | fd =Bd BG | c2 c2 | %17
w: lu- ja, Al- le-|lu- ja!|Ex- sul- te- mus|et lae-|te- mur in|e- a, lae-|te- mur, lae-|te- * mur * in *|e- a.|
 c>c | c2 c2 c>c | (c4 =B2) | c6- | c2 z2 c>c | c2 c2 c>c | (c4 f2) | !fermata!e6 || A6 | %26
w: Al- le-|lu- ja, Al- le-|lu- *|ja,|* Al- le-|lu- ja, Al- le|lu- *|ja!|Haec|
 A2 A2 [Ac]2 | (B2 A2) B2 | B>A A2 z2 | ([EG]4 [GB]2) | (([EG]4 [GB]2)) | A2 G2 F2 | c>c c2 z2 | %33
w: di- es quam|fe \- cit|Do- mi- nus,|haec _|di- es|quam fe- cit|Do- mi- nus,|
 c2 c2 c2 | c>c c2 [Ac]>[Ac] | [Ac]2 [c_e]2 [Bd]>B | f2 F2 z2 | z4 cc | B2 B2 B2 | A2 A2 A2 | %40
w: quam fe- cit|Do- mi- nus. Al- le-|lu- ja, Al- le-|lu- ja!|Ex- sul-|te- mus, lae-|te- mur in|
 G2 G2 c2 | fc Ac AF | E2 B2 B2 | A2 c2 | A>A | B2 A2 G>G | (A4 G2) | F2 [FA]2 [Ac]2 | %48
w: e- a, lae-|te- * mur, * lae- *|te- mur in|e- a.|Al- le-|lu- ja, Al- le-|lu- *|ja, Al- le-|
 [c_e]2 [Bd]2 c>c | B2 A2 | G>G | (A4 [GB]2) | [Ac]4 z2 | c>c c4 | [Ac]4 z2 | c>c (G2 c2) | %56
w: lu- ja, Al- le-|lu- ja,|Al- le|lu- *|ja,||ja,|Al- le- lu- *|
 !fermata!A6 |] %57
w: ja!|
V:4
 x6 | x6 | x6 | x6 | x6 | x6 | x6 | x6 | x6 | x6 | x6 | x6 | x6 | x6 | x6 | x6 | x4 | x2 | x6 | %19
w: |||||||||||||||||||
 x6 | x6 | x6 | x6 | x6 | x6 || x6 | x6 | x6 | x6 | x6 | x6 | x6 | x6 | x6 | x6 | x6 | x6 | x6 | %38
w: |||||||||||||||||||
 x6 | x6 | x6 | x6 | x6 | x4 | x2 | x6 | x6 | x6 | x6 | x4 | x2 | x6 | x6 | A>A (B2 G2) | x6 | x6 | %56
w: |||||||||||||||Al- le- lu \-|||
 x6 |] %57
w: |
V:5
 F,6 | F,2 F,2 F,2 | F,4 F,2 | F,>F, F,2 z2 | C,6 | C,4 C,2 | C,2 C,2 C,2 | C,>C, C,2 B,>B, | %8
w: Haec|di- es quam|fe- cit|Do- mi- nus,|haec|di- es|quam fe- cit|Do- mi- nus. Al- le-|
 A,2 A,2 G,>F, | C2 C,2 z2 | z4 G,G, | F,2 F,2 F,2 | E,2 E,2 E,2 | D,2 D,2 G,2 | CG, E,G, E,C, | %15
w: lu- ja, Al- le-|lu- ja!|Ex- sul-|te- mus, lae-|te- mur in|e- a, lae-|te- * mur, * lae- *|
 =B,,2 D,2 G,2 | E,2 G,2 | B,>B, | A,2 G,2 ^F,>F, | (G,4 G,,2) | C,2 (E,2 F,2 | G,2 A,2) B,2 | %22
w: te- mur in|e- a.|Al- le-|lu- ja, Al- le-|lu- *|ja, Al- *|* * le-|
 A,2 G,2 ^F,>F, | (G,4 G,,2) | !fermata!C,6 || F,6 | F,2 F,2 F,2 | F,4 F,2 | F,>F, F,2 z2 | C,6 | %30
w: lu- ja, Al- le-|lu- *|ja!|Haec|di- es quam|fe- cit|Do- mi- nus,|haec|
 (C,4 C,2) | C,2 C,2 C,2 | C,>C, C,2 z2 | C,2 E,2 C,2 | F,>F, F,2 F,>F, | F,2 F,2 F,>F, | %36
w: di- es|quam fe- cit|Do- mi- nus,|quam fe- cit|Do- mi- nus. Al- le-|lu- ja, Al- le-|
 F,2 F,2 z2 | z6 | z6 | z4 F,2 | B,G, E,G, E,C, | A,2 F,2 C,2 | C,2 C,2 E,2 | F,2 F,2 | _E,>E, | %45
w: lu- ja!|||Lae-|te- * mur * in *|e- a, lae-|te- mur in|e- a.|Al- le-|
 D,2 C,2 =B,,>B,, | C,6 | F,,6 | z2 F,2 _E,2 | D,2 C,2 | =B,,>B,, | C,6 | F,,4 z2 | C,>C, C,4 | %54
w: lu- ja, Al- le-|lu-|ja,|Al- le-|lu- ja,|Al- le|lu-|ja,|Al- le- lu-|
 F,4 z2 | C,>C, C,4 | !fermata!F,6 |] %57
w: ja,|Al- le- lu-|ja!|

